X:1
T:H -- ' on the Wabash -- Jig
R:reel
B:Ryan's Mammoth Collection
N: 114 638
Z: Contributed by Ray Davies,  ray:davies99.freeserve.co.uk
M:2/4
L:1/16
K:Am
{^g}ua|\
z2{^g}va2 u(A2>.B2) | cd"4"ec A2>{^g}a2 |\
z2{^g}va2 u(G2>.A2) | BcdB G2>{^g}a2 |
z2{^g}va2 u(A2>.B2) | cd"4"ec A2((3BAG) |\
vAc ((3ef^g) auefd | cAB^G "4"A2:|
|:vAB|\
vc"4"ezu"4"e zu"4"ecA | vc"4"ezue zuecA |\
"^SEGUE"Bdzd zdBG | Bdzd zdBG |
c"4"ez"4"e z"4"ecA | ceze zecA |\
vAc ((3ef^g) auefd | cAB^G "4"A2"_D.C.":|
